X: 1
T: Trail of the Lonesome Pine, The
I: Trail of the Lonesome Pine, TheS-TFsquare
C: S-T
M: C|
Z: Transcribed to abc by Mary Lou Knack
R: square
%%leftmargin 3.5cm
%%rightmargin 4.5cm
%%stretchstaff 0
P: Intro
K: F
z4 _G2=G2| "C7"A4 G2E2| C4 G4| "F"F8-| F2z2 |
%%stretchstaff 1
%%leftmargin 2.5cm
%%rightmargin 2.5cm
P:
|:A2_A2| \
"F"A4 C4| C2D2 C2A,2| "G7"=B,4 G4-| G4 _G2=G2| "C7"A4 G2E2| C4 G4| "F"F8-| F4 A2_A2|
"F"A4 C4| C2D2 C2A,2| "G"=B,4 D4| G8| "G7"G4 G4| G2G2 F2D2| "C"E2E2 F2_G2| "C7"G4 A2_A2|
"F7"A8-| A4 G2F2| G2A2 F2G2-| G4 A2F2| "Bb"G2 F6-| F4 F2D2| F2G2 _A2"A"=A2-| A4 "C7"A2_A2|
%%vskip 5pt
"F"A4 C4| C2D2 C2A,2| "G7"=B,4 G4-| G4 _G2=G2 |1 \
  "C7"A4 G2E2| C4 G4| "F"F8-| F4 :|
%%text Last time
%%vskip 4pt
[2 "C7"A4 c2A2| c4 A4| "F"F8-| F4 |]
%%newpage
%%topspace 0
%%musicspace 0
%%subtitlespace 0
%%leftmargin     2.5cm
%%rightmargin 2.5cm
%%scale .7
%%staffwidth     15.50cm
%%textfont       Times-Roman 10.0
